styles/1/Numix/22/places/default-folder-vm.svg

<?xml version="1.0" encoding="UTF-8" standalone="no"?>
<!-- Created with Inkscape (http://www.inkscape.org/) -->

<svg
   xmlns:dc="http://purl.org/dc/elements/1.1/"
   xmlns:cc="http://creativecommons.org/ns#"
   xmlns:rdf="http://www.w3.org/1999/02/22-rdf-syntax-ns#"
   xmlns:svg="http://www.w3.org/2000/svg"
   xmlns="http://www.w3.org/2000/svg"
   xmlns:sodipodi="http://sodipodi.sourceforge.net/DTD/sodipodi-0.dtd"
   xmlns:inkscape="http://www.inkscape.org/namespaces/inkscape"
   width="22"
   height="22"
   id="svg2"
   version="1.1"
   inkscape:version="0.91 r"
   sodipodi:docname="default-folder-vm.svg"
   inkscape:export-filename="/media/Data/Main/Visuals/Icons/Numix/Desktop/repos/numix-wiki/Gjorgi/Numix-folders/48/New/folder-144.png"
   inkscape:export-xdpi="270"
   inkscape:export-ydpi="270">
  <defs
     id="defs4" />
  <sodipodi:namedview
     id="base"
     pagecolor="#ffffff"
     bordercolor="#666666"
     borderopacity="1.0"
     inkscape:pageopacity="0.0"
     inkscape:pageshadow="2"
     inkscape:zoom="22.603171"
     inkscape:cx="9.9089"
     inkscape:cy="9.3271539"
     inkscape:document-units="px"
     inkscape:current-layer="layer1"
     showgrid="true"
     inkscape:window-width="1280"
     inkscape:window-height="998"
     inkscape:window-x="0"
     inkscape:window-y="0"
     inkscape:window-maximized="1"
     showguides="true"
     inkscape:guide-bbox="true"
     inkscape:object-nodes="true">
    <inkscape:grid
       type="xygrid"
       id="grid2985"
       empspacing="5"
       visible="true"
       enabled="true"
       snapvisiblegridlinesonly="true" />
  </sodipodi:namedview>
  <metadata
     id="metadata7">
    <rdf:RDF>
      <cc:Work
         rdf:about="">
        <dc:format>image/svg+xml</dc:format>
        <dc:type
           rdf:resource="http://purl.org/dc/dcmitype/StillImage" />
        <dc:title />
      </cc:Work>
    </rdf:RDF>
  </metadata>
  <g
     inkscape:label="Layer 1"
     inkscape:groupmode="layer"
     id="layer1"
     transform="translate(0,-1030.3622)">
    <path
       style="font-size:medium;font-style:normal;font-variant:normal;font-weight:normal;font-stretch:normal;text-indent:0;text-align:start;text-decoration:none;line-height:normal;letter-spacing:normal;word-spacing:normal;text-transform:none;direction:ltr;block-progression:tb;writing-mode:lr-tb;text-anchor:start;baseline-shift:baseline;color:#000000;fill:#c4905e;fill-opacity:1;fill-rule:nonzero;stroke:none;stroke-width:1.52408636;marker:none;visibility:visible;display:inline;overflow:visible;enable-background:accumulate;font-family:Sans;-inkscape-font-specification:Sans"
       d="M 1.625 3 C 1.2775698 3.063 0.99985296 3.3968 1 3.75 L 1 18.25 C 1.00617 18.641 1.3590206 18.9938 1.75 19 L 20.25 19 C 20.640979 18.99 20.99383 18.641 21 18.25 L 21 5.8125 C 20.9938 5.4215 20.640979 5.0062 20.25 5 L 13 5 L 13 3.75 C 12.9938 3.359 12.640979 3.0062 12.25 3 L 1.625 3 z M 9 7 L 13 7 C 13.554 7 14 7.446 14 8 L 8 8 C 8 7.446 8.446 7 9 7 z M 8 9 L 14 9 L 14 15 L 8 15 L 8 9 z M 9 10 L 9 11 L 13 11 L 13 10 L 9 10 z M 11 12 C 10.447715 12 10 12.4477 10 13 C 10 13.5523 10.447715 14 11 14 C 11.552285 14 12 13.5523 12 13 C 12 12.4477 11.552285 12 11 12 z M 8 16 L 14 16 C 14 16.554 13.554 17 13 17 L 9 17 C 8.446 17 8 16.554 8 16 z "
       transform="translate(0,1030.3622)"
       id="path3912" />
  </g>
</svg>

<!-- Created with Inkscape (http://www.inkscape.org/) -->
<svg xmlns="http://www.w3.org/2000/svg" viewBox="0 0 22 22">
 <g transform="translate(0,-1030.3622)">
  <path d="m 1.625 3 c -0.347 0.063 -0.625 0.397 -0.625 0.75 l 0 14.5 c 0.006 0.391 0.359 0.744 0.75 0.75 l 18.5 0 c 0.391 -0.01 0.744 -0.359 0.75 -0.75 l 0 -12.438 c -0.006 -0.391 -0.359 -0.806 -0.75 -0.813 l -7.25 0 l 0 -1.25 c -0.006 -0.391 -0.359 -0.744 -0.75 -0.75 l -10.625 0 z m 7.375 4 l 4 0 c 0.554 0 1 0.446 1 1 l -6 0 c 0 -0.554 0.446 -1 1 -1 z m -1 2 l 6 0 l 0 6 l -6 0 l 0 -6 z m 1 1 l 0 1 l 4 0 l 0 -1 l -4 0 z m 2 2 c -0.552 0 -1 0.448 -1 1 c 0 0.552 0.448 1 1 1 c 0.552 0 1 -0.448 1 -1 c 0 -0.552 -0.448 -1 -1 -1 z m -3 4 l 6 0 c 0 0.554 -0.446 1 -1 1 l -4 0 c -0.554 0 -1 -0.446 -1 -1 z" transform="translate(0,1030.3622)" style="visibility:visible;fill:#c4905e;fill-opacity:1;stroke:none;display:inline;color:#000;fill-rule:nonzero"/>
 </g>
</svg>
